X:3
T:Maids of Mount Cisco, The
T:Maids of Mount Kisco, The
T:Maids of Montcisco, The
M:C|
L:1/8
C:Paddy Killoran ()
R:Reel
K:ADor
AG[|:EA~A2 BGAG|EA~A2 BGAG|EG~G2 AG~G2|EG~G2 EGDG|!
EA~A2 BGAG|EA~A2 BABd|efge afge|1dBGB A2AG:|2dBGB A2dB|]!
~A3B dBAB|G2BG DGBG|~A3B dGBd|egfa gedB|!
~A3B dBAB|G2BG DGBG|~A3B dGBd|efge d2Bd|!
|:eaag bgag|egdB GABd|ea~a2 bgag|edBd g2eg|!
~a3f ~g3e|dedB GABd|eA~A2 efge|1dBGB A2Bd:|2dBGB A2AG|]!
